X:1
T:Title
%%score { ( 1 3 5 ) | ( 2 4 ) }
L:1/8
Q:1/4=100
M:4/4
K:Ab
V:1 treble nm="Grand Piano"
V:3 treble 
V:5 treble 
V:2 bass 
V:4 bass 
V:1
 [CE]2 [CA]>[DB] [Ec]2 [Fd]2 | c4 B2 z2 | E2 G>A B2 c2 | [DA]6 z2 | [CE]2 [CA]>[EB] [Ec]2 [Fd]2 | %5
w: George~C.~Stebbins * * * *|||||
 [Ec]4 [EB]2 z2 | [Ge]2 B>A G2 [=DF]2 | E6 z2 | d2 c>B F2 G2 | [CA]4 [CE]2 z2 | %10
w: |||||
 A2 F>G [FA]2 [FB]2 | [Fc]6 z2 | [Ec]2 [DB]>[Ec] [Fd]2 c2 | e4 z4 | %14
w: ||||
 [CEA]2 [B,EG]>[CEA] [EAc]2 [DGB]2 | [CA]6 z2 | [ce]6 z2 | [Ac]6 z2 | [FA]6 z2 | [CE]6 z2 | %20
w: ||||||
 G2 F>[EG] [EA]2 B2 | c4 z4 | [Ee]2 A>B c2 B2 | [CA]6 z2 |] %24
w: ||||
V:2
 [A,,A,]2 [A,,A,]>[A,,A,] [A,,A,]2 [A,,A,]2 | [E,A,E]4 [E,G,D]2 z2 | %2
 [E,G,D]2 [E,B,D]>[E,A,C] [E,G,D]2 [E,G,E]2 | [A,,A,]6 z2 | %4
 [A,,A,]2 [A,,A,]>[A,,A,] [A,,A,]2 [A,,A,]2 | [E,A,]4 [E,G,]2 z2 | %6
 [E,B,]2 [G,B,E]>[A,CE] [B,E]2 [B,,A,]2 | [E,G,]6 z2 | [E,B,E]2 [E,A,E]>[E,G,E] [E,A,D]2 [E,B,D]2 | %9
 [A,,A,]4 [A,,A,]2 z2 | [F,C]2 [F,A,C]>[F,B,C] [D,A,]2 [D,F,]2 | [C,G,]6 z2 | %12
 [A,,A,]2 [A,,A,]>[A,,A,] [A,,A,]2 [A,E]2 | G4 z4 | E,2 E,>E, E,2 E,2 | A,,6 z2 | %16
 A,2 A,2 z[K:treble] d [A,E]2 | [A,E]2 A,2 A,2 z2 | D,2 D,2 z G [D,A,]2 | [A,,A,]2 A,,2 A,,2 z2 | %20
 [E,B,D]2 [E,A,D]>[D,B,] [C,A,]2 [E,G,E]2 | E2 z2 [D,A,]2 z2 | %22
 [C,A,]2 [F,A,F]>[F,A,=D] [E,A,E]2 [E,G,_D]2 | [A,,A,]6 z2 |] %24
V:3
 x8 | x8 | x8 | x8 | x8 | x8 | x8 | x8 | x8 | x8 | x8 | x8 | x8 | z2 A,2 [Ff]2 z2 | x8 | x8 | %16
 E2 E2 z f[ce][Bd] | z2 E2 E2 z2 | D2 D2 z B[FA][DF] | z2 A,2 A,2 z2 | x8 | z2 _G2 [Fd]2 z2 | x8 | %23
 x8 |] %24
V:4
 x8 | x8 | x8 | x8 | x8 | x8 | x8 | x8 | x8 | x8 | x8 | x8 | x8 | [A,C]2 C,2 [D,A,]2 z2 | x8 | x8 | %16
 z4 A,2[K:treble] z2 | x8 | z4 D,2 z2 | x8 | x8 | A,4 z4 | x8 | x8 |] %24
V:5
 x8 | x8 | x8 | x8 | x8 | x8 | x8 | x8 | x8 | x8 | x8 | x8 | x8 | x8 | x8 | x8 | z4 E2 z2 | x8 | %18
 z4 D2 z2 | x8 | x8 | x8 | x8 | x8 |] %24

